X: 080448
T: Hunter's Road
M: 6/8
L: 1/8
R: jig
S: Grian\'an, "The Maid of Eirin"
Z:  via IRTRAD
K: D
FAG FAG | FDE F2d | BFF Bcd | BAB d2B |
A2G FAG | FDE F2d | BGE Bcd |1 a2g fdA :|2\
a2g fdd ||
fed ~a3 | def fed | ecA ~A3 | B/c/de ABc |
~B3 def | f2b bag | f/g/af def |1 ecA d2e :|2\
ecA BAG ||
